X:1
T:Lisa Waltz v.01
I:Lisa Waltz    D       Waltz
C:\251 Buzz Gagnebin 2007
Z:2010 Michael Pavan <michaelpavan@comcast.net>
Z:2015 layout modified by John Chambers to make the phrasing clearer.
R:Waltz
M:3/4
L:1/4
K:D
D |\
"D"F>G F |    A2  A |    d>c d | "G"B A F | "D"A>B A | "G"G F E | "D"A>B A | "A"E2 E |
"D"F>G F | "G"E D B,| "D"D>E D |    D2  D | "G"B2  c |    d>c B | "D"A>B A |    F2 F |
"G"G>F G |    e2  d | "A"c>B c | "D"d2  D | "G"G>F G | "D"A>G A | "G"B>A B | "D"d2 c |
"G"e d B | "D"A>B A | "A"E3-   |    E2  E | "D"F>G F | "G"E D B,| "D"D>E D |    D2 D |
"G"B2  c |    d>c B | "D"A>B A |    F2  F | "G"G>F G |    e2  d | "A"c>B c | "D"d2  |]
%%center A Dancing With Angels Production
